icons/pipefy.svg

<?xml version="1.0" encoding="UTF-8"?>
<svg width="256px" height="88px" viewBox="0 0 256 88" version="1.1" xmlns="http://www.w3.org/2000/svg" xmlns:xlink="http://www.w3.org/1999/xlink" preserveAspectRatio="xMidYMid">
    <g>
        <path d="M238.92973,54.4781916 L220.942436,23.3263424 C220.79498,23.0686888 220.520788,22.9097823 220.223924,22.9099321 L208.444682,22.9099321 C208.327651,22.9099321 208.235116,22.9534783 208.134415,22.9970244 C208.099034,22.9915812 208.066374,22.9698081 208.030993,22.9698081 L201.537169,22.9698081 C201.53989,22.9072104 201.542612,21.2742287 201.548055,21.2143527 C202.016177,12.8807023 209.304719,10.7687125 211.789573,10.3250858 C212.18394,10.2545747 212.469461,9.90918626 212.464539,9.5085949 L212.45093,0.82657507 C212.450581,0.598856101 212.356391,0.381348511 212.190551,0.225293851 C212.024711,0.0692391904 211.801883,-0.0115643764 211.574563,0.00191926778 C206.855246,0.304020898 190.514542,3.98911646 189.654505,21.2143527 L189.643618,22.9670864 L184.646694,22.9670864 C184.45541,22.9678069 184.272248,23.0444856 184.1375,23.1802539 C184.002753,23.3160221 183.927459,23.4997582 183.928177,23.6910417 L183.928177,32.1063412 C183.928177,32.5064217 184.249335,32.8330181 184.646694,32.8330181 L188.86523,32.8330181 C189.259867,32.8330181 189.583742,33.1568928 189.583742,33.5515301 L189.583742,70.1439302 C189.583742,70.5930002 189.94572,70.9549779 190.392068,70.9549779 L200.652637,70.9549779 C200.883301,70.9522127 201.101549,70.8500327 201.251397,70.6746493 C201.433532,70.5230769 201.539988,70.2992209 201.542612,70.0622811 L201.542612,33.5814681 C201.542612,33.3637371 201.632426,33.1650577 201.773951,33.0180893 C201.912872,32.9012793 202.087808,32.8359187 202.269289,32.8330181 L212.173323,32.6996579 C212.473102,32.6965572 212.751105,32.8558625 212.9,33.1160682 L225.234456,54.4809133 C225.378873,54.7319512 225.382993,55.0398712 225.245343,55.2946825 L208.888308,85.7252981 C208.749758,85.9827684 208.756372,86.2940365 208.905735,86.5453889 C209.055097,86.7967412 209.325328,86.9513588 209.617707,86.9527561 L221.418722,86.9527561 C221.722526,86.9527561 222.001492,86.7848537 222.145399,86.5172943 L238.937895,55.2946825 C239.0774,55.0396312 239.074307,54.7304022 238.92973,54.4781916 M255.896411,24.0584626 L243.014906,48.0306352 C242.872203,48.2926372 242.599875,48.457907 242.301584,48.4636835 C242.003292,48.4691633 241.724924,48.314284 241.572439,48.0578516 L235.394324,37.503346 C235.246977,37.2523843 235.241814,36.9425876 235.380716,36.6868551 L242.601217,23.3181775 C242.741012,23.0531918 243.014705,22.8860511 243.314286,22.8827157 C245.21671,22.8609426 252.21948,22.8010666 255.186064,22.8337263 C255.47625,22.8374986 255.743093,22.9935262 255.888697,23.2445677 C256.034301,23.4956091 256.037231,23.8047066 255.896411,24.0584626 M169.190521,41.7219417 L146.184529,41.7219417 C145.902169,41.7253066 145.638628,41.5806411 145.489918,41.3405895 C145.341209,41.1005379 145.329043,40.8001484 145.457853,40.548857 C146.677146,38.1456521 150.1935,32.9037806 157.699773,32.9037806 C165.069964,32.9037806 168.651637,38.1374872 169.911755,40.5406921 C170.04068,40.7920549 170.029524,41.0923924 169.882305,41.3334974 C169.735086,41.5746025 169.473019,41.7217339 169.190521,41.7219417 M157.74604,21.0755492 C143.822149,21.0755492 132.535523,32.4247726 132.535523,46.4221482 C132.535523,60.4222453 143.822149,71.7687471 157.74604,71.7687471 C165.2632,71.7687471 174.973998,68.0673217 180.343787,57.5917436 C180.468768,57.3390523 180.454555,57.0397637 180.306189,56.8000537 C180.157824,56.5603436 179.896297,56.4141268 179.614388,56.4132751 L167.271768,56.4132751 C167.068288,56.4144565 166.873184,56.494449 166.72744,56.6364492 C165.80543,57.5167368 164.75231,58.2485039 163.605723,58.8055934 C161.999958,59.5839814 160.053988,60.0902057 157.697051,60.0902057 C150.275149,60.0902057 146.693475,55.2184767 145.68647,52.6329222 C145.595401,52.3848504 145.631786,52.1078887 145.783839,51.8917564 C145.935891,51.6756242 146.184275,51.5478073 146.448528,51.549711 L181.699162,51.5551542 C182.105204,51.5434456 182.443994,51.2414058 182.502044,50.8393639 C182.624518,49.8514099 182.790538,48.8525694 182.844971,47.8346774 C183.276435,40.9020539 180.826592,34.0988657 176.074403,29.0328875 C171.322215,23.9669093 164.689345,21.0876478 157.743319,21.0755492 M105.724684,60.0793192 C101.053993,61.1642472 96.1543024,59.7581596 92.7696952,56.361564 C89.3792623,52.9588166 87.9778182,48.0511918 89.060105,43.3711939 C90.1921424,38.2006838 94.2239225,34.1582826 99.3914364,33.0126461 C104.062142,31.927177 108.962093,33.3333395 112.346425,36.7304013 C115.73732,40.1328774 117.138838,45.0407598 116.056016,49.7207714 C114.923359,54.8909433 110.891858,58.9330642 105.724684,60.0793192 M113.462296,23.4515377 C102.159341,18.5117678 92.5927889,23.4215997 89.5499995,25.3866211 C87.9551206,26.4208429 88.0258832,23.0460139 86.5017668,23.0460139 L77.5475834,23.0460139 C77.3327308,23.0452905 77.1264301,23.1301337 76.9742504,23.2818027 C76.8220707,23.4334717 76.7365357,23.6394861 76.7365357,23.8543399 L76.7365357,86.2805119 C76.7365357,86.7268603 77.0985134,87.0915595 77.5448617,87.0915595 L87.712895,87.0915595 C87.9277488,87.0915595 88.1337632,87.0060246 88.2854322,86.8538449 C88.4371012,86.7016652 88.5219444,86.4953645 88.521221,86.2805119 L88.521221,68.4946186 C88.521221,67.8686423 89.1989084,67.474005 89.7350708,67.7951581 C91.9776991,69.1559763 97.1324782,71.7714687 103.468448,71.7714687 C118.1925,71.7714687 130.004402,59.0124377 128.491172,43.9427375 C127.584867,34.9422862 121.727906,27.0685924 113.462296,23.4515377 M28.9854267,60.0793192 C24.3147352,61.1642472 19.415045,59.7581596 16.0304379,56.361564 C12.6409825,52.9582713 11.2405875,48.0507194 12.3235692,43.3711939 C13.4556067,38.2006838 17.4873867,34.1582826 22.6549006,33.0126461 C27.3256059,31.927177 32.2255575,33.3333395 35.6098895,36.7304013 C38.9998068,40.1334229 40.4002753,45.0412323 39.3167581,49.7207714 C38.1847206,54.8912815 34.1529406,58.9336826 28.9854267,60.0793192 M36.7257604,23.4515377 C25.4228048,18.5117678 15.8589748,23.4215997 12.8107421,25.3866211 C11.2185849,26.4208429 11.2866258,23.0460139 9.76250944,23.0460139 L0.808325984,23.0460139 C0.36189987,23.0460139 5.68434189e-14,23.4079138 5.68434189e-14,23.8543399 L5.68434189e-14,86.2805119 C5.68434189e-14,86.7268603 0.361977629,87.0915595 0.808325984,87.0915595 L10.9736376,87.0915595 C11.1884914,87.0915595 11.3945058,87.0060246 11.5461748,86.8538449 C11.6978438,86.7016652 11.782687,86.4953645 11.7819636,86.2805119 L11.7819636,68.4946186 C11.7819636,67.8686423 12.459651,67.474005 12.9958134,67.7951581 C15.2411633,69.1559763 20.3959425,71.7714687 26.7291902,71.7714687 C41.4586859,71.7714687 53.2651442,59.0124377 51.7519144,43.9427375 C50.8456095,34.9422862 44.9913698,27.0685924 36.7257604,23.4515377 M68.6097297,23.0487355 L58.422645,23.0487355 C58.2087657,23.0472855 58.0031482,23.1312341 57.8513992,23.2819613 C57.6996501,23.4326884 57.614319,23.637734 57.614319,23.8516182 L57.614319,70.3943208 C57.614319,70.8433908 57.9790183,71.2053684 58.4253667,71.2053684 L68.6124514,71.2053684 C69.0593174,71.2038688 69.4207773,70.8411893 69.4207773,70.3943208 L69.4207773,23.8570615 C69.4192838,23.4097524 69.0570389,23.0475074 68.6097297,23.0460139" fill="#000000"></path>
    </g>
</svg>

<svg xmlns="http://www.w3.org/2000/svg" viewBox="0 0 256 87.091">
  <path d="m238.93 54.478-17.988-31.152a.827.827 0 0 0-.718-.417h-11.78c-.116 0-.209.044-.31.088-.035-.006-.068-.028-.103-.028h-6.494c.003-.062.005-1.695.011-1.755.468-8.334 7.757-10.446 10.242-10.89a.82.82 0 0 0 .675-.816L212.45.826a.828.828 0 0 0-.876-.825c-4.72.303-21.06 3.988-21.92 21.213l-.011 1.753h-4.997a.721.721 0 0 0-.719.724v8.415c0 .4.321.727.719.727h4.218c.395 0 .719.323.719.718v36.592c0 .45.362.812.808.812h10.26a.8.8 0 0 0 .6-.28.808.808 0 0 0 .29-.613V33.58c0-.218.09-.416.232-.563a.79.79 0 0 1 .495-.185l9.904-.134c.3-.003.578.156.727.417l12.334 21.364a.836.836 0 0 1 .011.814l-16.357 30.43a.833.833 0 0 0 .73 1.228h11.8a.826.826 0 0 0 .727-.435l16.793-31.223a.836.836 0 0 0-.008-.816m16.967-30.42L243.015 48.03a.83.83 0 0 1-1.442.027l-6.179-10.554a.83.83 0 0 1-.013-.817l7.22-13.368a.816.816 0 0 1 .713-.436c1.903-.022 8.906-.081 11.872-.049a.825.825 0 0 1 .71 1.225m-86.705 17.663h-23.006a.806.806 0 0 1-.727-1.173c1.22-2.403 4.736-7.645 12.242-7.645 7.37 0 10.952 5.234 12.212 7.637a.81.81 0 0 1-.721 1.181m-11.445-20.646c-13.924 0-25.21 11.35-25.21 25.347 0 14 11.286 25.346 25.21 25.346 7.517 0 17.228-3.701 22.598-14.177a.817.817 0 0 0-.73-1.178h-12.342a.787.787 0 0 0-.545.223 12.313 12.313 0 0 1-3.121 2.17c-1.606.778-3.552 1.284-5.909 1.284-7.422 0-11.004-4.872-12.01-7.458a.805.805 0 0 1 .762-1.083l35.25.006a.836.836 0 0 0 .803-.716c.123-.988.289-1.987.343-3.005a25.194 25.194 0 0 0-25.102-26.759m-52.018 39.004A13.861 13.861 0 0 1 92.77 56.36a13.951 13.951 0 0 1-3.71-12.99 13.586 13.586 0 0 1 10.331-10.359c4.671-1.085 9.571.32 12.955 3.718a13.948 13.948 0 0 1 3.71 12.99 13.59 13.59 0 0 1-10.331 10.359m7.737-36.628c-11.303-4.94-20.87-.03-23.912 1.935-1.595 1.034-1.524-2.34-3.048-2.34h-8.954a.808.808 0 0 0-.811.808V86.28a.81.81 0 0 0 .808.811h10.168a.808.808 0 0 0 .808-.811V68.494c0-.626.678-1.02 1.214-.7 2.243 1.362 7.398 3.977 13.733 3.977 14.725 0 26.536-12.759 25.023-27.829-.906-9-6.763-16.874-15.029-20.49M28.985 60.078A13.861 13.861 0 0 1 16.03 56.36a13.951 13.951 0 0 1-3.706-12.99 13.586 13.586 0 0 1 10.33-10.359c4.672-1.085 9.572.32 12.956 3.718a13.948 13.948 0 0 1 3.707 12.99A13.586 13.586 0 0 1 28.985 60.08m7.74-36.628c-11.302-4.94-20.866-.03-23.914 1.935-1.592 1.034-1.524-2.34-3.048-2.34H.808a.808.808 0 0 0-.808.808V86.28a.81.81 0 0 0 .808.811h10.166a.808.808 0 0 0 .808-.811V68.494c0-.626.678-1.02 1.214-.7 2.245 1.362 7.4 3.977 13.733 3.977 14.73 0 26.536-12.759 25.023-27.829-.906-9-6.76-16.874-15.026-20.49m31.884-.404H58.423a.803.803 0 0 0-.809.803v46.543c0 .449.365.81.811.81h10.187a.811.811 0 0 0 .809-.81V23.857a.814.814 0 0 0-.811-.811"/>
</svg>
